X: 103
T: Constitution Hornpipe
B: NEFR #103
Z: arr. T. Traub 7-10-2003
N: Pickups placed at the start of phrases rather than at the end.
M: 4/4
L: 1/8
R: hornpipe, reel
K: F
   c2 \
| "F"f2 f2 fc af | "C7"g2 g2 gc bg | "F"ag fe "Bb"dB ba | "Gm"gf ga "C7"gc de |
| "F"f2 f2 fc af | "C7"g2 g2 gc bg | "F"ag fe "Bb"db "C7"ge | "F"f2 a2 f2 :|
|: c2 \
| "F"Ac fc af cA | "Bb"Bd fd bf dB | "C7"ce ge bg eg | "F"fa gf "C7"ed cB |
| "F"Ac fc af cA | "Bb"Bd fd bf df | "C7"ce ge bg eg | "F"f2 a2 f2 :|


